X:615
T:Rollicking Boys of Tandernagee
R:jig
Z:Transcribed by Dave Marshall
M:6/8
K:Edor
|: BAB ~E3 | BAB d2B | BAF ~F3 | D2F FGA |
BAB ~E3 | BAB def | edB AFA | BEE E3 :|
|: B2e efe | def afe | fed BAF | ~B3 dBA |
B2e efe | def afe | edB AFA | BEE E3 :|
